public/media/icons-technologies/AWS.svg

<svg width="140" height="140" viewBox="0 0 140 140" fill="none" xmlns="http://www.w3.org/2000/svg">
<g clip-path="url(#clip0_205_1393)">
<path d="M44.2069 60.5389C44.2069 61.986 44.3633 63.1593 44.6371 64.0197C44.95 64.8801 45.3411 65.8188 45.8886 66.8356C46.0842 67.1485 46.1624 67.4614 46.1624 67.7352C46.1624 68.1263 45.9277 68.5174 45.4193 68.9085L42.9553 70.5511C42.6034 70.7858 42.2514 70.9031 41.9385 70.9031C41.5474 70.9031 41.1563 70.7075 40.7652 70.3556C40.2176 69.7689 39.7483 69.1431 39.3572 68.5174C38.9661 67.8525 38.575 67.1094 38.1448 66.2099C35.0942 69.808 31.2614 71.6071 26.6464 71.6071C23.3612 71.6071 20.7408 70.6684 18.8244 68.7911C16.908 66.9139 15.9303 64.4108 15.9303 61.282C15.9303 57.9576 17.1036 55.259 19.4893 53.2253C21.875 51.1916 25.0429 50.1747 29.0713 50.1747C30.401 50.1747 31.7699 50.2921 33.2169 50.4876C34.664 50.6832 36.1502 50.996 37.7146 51.348V48.493C37.7146 45.5206 37.0888 43.4478 35.8764 42.2354C34.6249 41.023 32.5129 40.4363 29.5015 40.4363C28.1326 40.4363 26.7246 40.5927 25.2776 40.9447C23.8305 41.2967 22.4225 41.7269 21.0537 42.2745C20.4279 42.5483 19.9586 42.7047 19.6848 42.7829C19.4111 42.8611 19.2155 42.9002 19.0591 42.9002C18.5115 42.9002 18.2378 42.5091 18.2378 41.6878V39.7714C18.2378 39.1457 18.316 38.6764 18.5115 38.4026C18.7071 38.1288 19.0591 37.855 19.6066 37.5813C20.9755 36.8773 22.6181 36.2906 24.5345 35.8213C26.4509 35.3129 28.4846 35.0782 30.6357 35.0782C35.2898 35.0782 38.6923 36.1342 40.8825 38.2461C43.0336 40.3581 44.1287 43.5651 44.1287 47.8672V60.5389H44.2069ZM28.3282 66.4837C29.6188 66.4837 30.9485 66.249 32.3565 65.7797C33.7645 65.3104 35.016 64.4499 36.072 63.2766C36.6977 62.5335 37.1671 61.7122 37.4017 60.7736C37.6364 59.8349 37.7928 58.7007 37.7928 57.371V55.7284C36.6586 55.4546 35.4462 55.2199 34.1947 55.0635C32.9432 54.9071 31.7307 54.8288 30.5183 54.8288C27.898 54.8288 25.9816 55.3373 24.6909 56.3932C23.4003 57.4492 22.7745 58.9354 22.7745 60.8909C22.7745 62.7291 23.2438 64.0979 24.2216 65.0366C25.1602 66.0143 26.5291 66.4837 28.3282 66.4837ZM59.7336 70.7075C59.0296 70.7075 58.5603 70.5902 58.2474 70.3164C57.9345 70.0818 57.6608 69.5342 57.4261 68.7911L48.2352 38.559C48.0006 37.7768 47.8832 37.2684 47.8832 36.9946C47.8832 36.3689 48.1961 36.0169 48.8219 36.0169H52.6547C53.3978 36.0169 53.9062 36.1342 54.18 36.408C54.4928 36.6426 54.7275 37.1902 54.9622 37.9333L61.5327 63.8242L67.6338 37.9333C67.8294 37.1511 68.064 36.6426 68.3769 36.408C68.6898 36.1733 69.2373 36.0169 69.9413 36.0169H73.0701C73.8132 36.0169 74.3217 36.1342 74.6345 36.408C74.9474 36.6426 75.2212 37.1902 75.3776 37.9333L81.557 64.137L88.3231 37.9333C88.5577 37.1511 88.8315 36.6426 89.1053 36.408C89.4182 36.1733 89.9266 36.0169 90.6306 36.0169H94.2678C94.8936 36.0169 95.2456 36.3297 95.2456 36.9946C95.2456 37.1902 95.2065 37.3857 95.1674 37.6204C95.1283 37.855 95.05 38.1679 94.8936 38.5981L85.4681 68.8303C85.2334 69.6125 84.9596 70.1209 84.6467 70.3556C84.3339 70.5902 83.8254 70.7467 83.1606 70.7467H79.7971C79.054 70.7467 78.5456 70.6293 78.2327 70.3556C77.9198 70.0818 77.646 69.5734 77.4896 68.7911L71.4275 43.5651L65.4046 68.752C65.209 69.5342 64.9743 70.0427 64.6615 70.3164C64.3486 70.5902 63.801 70.7075 63.0971 70.7075H59.7336ZM109.99 71.7635C107.956 71.7635 105.923 71.5289 103.967 71.0595C102.012 70.5902 100.486 70.0818 99.4695 69.4951C98.8437 69.1431 98.4135 68.752 98.2571 68.4C98.1006 68.0481 98.0224 67.657 98.0224 67.305V65.3103C98.0224 64.489 98.3353 64.0979 98.9219 64.0979C99.1566 64.0979 99.3913 64.137 99.6259 64.2153C99.8606 64.2935 100.213 64.4499 100.604 64.6064C101.933 65.193 103.38 65.6623 104.906 65.9752C106.47 66.2881 107.995 66.4445 109.56 66.4445C112.024 66.4445 113.94 66.0143 115.27 65.1539C116.6 64.2935 117.304 63.042 117.304 61.4384C117.304 60.3434 116.952 59.4438 116.248 58.7007C115.544 57.9576 114.214 57.2928 112.298 56.667L106.627 54.9071C103.772 54.0075 101.66 52.6778 100.369 50.9178C99.0784 49.197 98.4135 47.2806 98.4135 45.2469C98.4135 43.6042 98.7655 42.1572 99.4695 40.9056C100.173 39.6541 101.112 38.559 102.285 37.6986C103.459 36.7991 104.788 36.1342 106.353 35.6649C107.917 35.1956 109.56 35 111.281 35C112.141 35 113.041 35.0391 113.901 35.1564C114.801 35.2738 115.622 35.4302 116.443 35.5867C117.225 35.7822 117.969 35.9778 118.673 36.2124C119.377 36.4471 119.924 36.6817 120.315 36.9164C120.863 37.2293 121.254 37.5422 121.488 37.8941C121.723 38.207 121.84 38.6372 121.84 39.1848V41.023C121.84 41.8443 121.528 42.2745 120.941 42.2745C120.628 42.2745 120.12 42.118 119.455 41.8052C117.225 40.7883 114.722 40.2799 111.946 40.2799C109.716 40.2799 107.956 40.6319 106.744 41.375C105.532 42.118 104.906 43.2522 104.906 44.8558C104.906 45.9508 105.297 46.8895 106.079 47.6326C106.861 48.3757 108.308 49.1188 110.381 49.7836L115.935 51.5436C118.751 52.4431 120.784 53.6946 121.997 55.2982C123.209 56.9017 123.796 58.7398 123.796 60.7736C123.796 62.4553 123.444 63.9806 122.779 65.3103C122.075 66.6401 121.136 67.8134 119.924 68.752C118.712 69.7298 117.265 70.4338 115.583 70.9422C113.823 71.4897 111.985 71.7635 109.99 71.7635Z" fill="#252F3E"/>
<path fill-rule="evenodd" clip-rule="evenodd" d="M117.382 90.771C104.515 100.275 85.82 105.32 69.7458 105.32C47.2183 105.32 26.9202 96.9895 11.589 83.1445C10.3766 82.0495 11.4717 80.5633 12.9188 81.4237C29.5015 91.0448 49.9561 96.8722 71.1146 96.8722C85.3898 96.8722 101.073 93.8998 115.505 87.7987C117.656 86.8209 119.494 89.2066 117.382 90.771Z" fill="#FF9900"/>
<path fill-rule="evenodd" clip-rule="evenodd" d="M122.74 84.6699C121.097 82.5579 111.867 83.653 107.683 84.1614C106.431 84.3179 106.236 83.2228 107.37 82.4015C114.722 77.2389 126.807 78.7251 128.215 80.446C129.623 82.2059 127.824 94.2909 120.941 100.079C119.885 100.979 118.868 100.509 119.337 99.3362C120.902 95.4643 124.383 86.7427 122.74 84.6699Z" fill="#FF9900"/>
</g>
<defs>
<clipPath id="clip0_205_1393">
<rect width="120" height="70.32" fill="white" transform="translate(10 35)"/>
</clipPath>
</defs>
</svg>

<svg xmlns="http://www.w3.org/2000/svg" fill="none" viewBox="0 0 140 140">
  <g clip-path="url(#a)">
    <path fill="#252F3E" d="M44.2 60.54c0 1.45.16 2.62.44 3.48.31.86.7 1.8 1.25 2.82.2.3.27.62.27.9 0 .39-.23.78-.74 1.17l-2.46 1.64c-.36.24-.7.35-1.02.35-.4 0-.78-.2-1.17-.54a12.1 12.1 0 0 1-1.41-1.84c-.4-.67-.78-1.41-1.22-2.31a14.45 14.45 0 0 1-11.5 5.4c-3.28 0-5.9-.94-7.82-2.82-1.91-1.88-2.89-4.38-2.89-7.5 0-3.33 1.17-6.03 3.56-8.06 2.39-2.04 5.55-3.06 9.58-3.06 1.33 0 2.7.12 4.15.32 1.44.2 2.93.5 4.5.86v-2.86c0-2.97-.63-5.04-1.84-6.25-1.26-1.22-3.37-1.8-6.38-1.8-1.37 0-2.78.15-4.22.5-1.45.36-2.86.79-4.23 1.33-.62.28-1.1.43-1.37.51a2.4 2.4 0 0 1-.62.12c-.55 0-.82-.4-.82-1.21v-1.92c0-.62.08-1.1.27-1.37.2-.27.55-.55 1.1-.82 1.37-.7 3-1.29 4.92-1.76 1.92-.5 3.95-.74 6.1-.74 4.66 0 8.06 1.05 10.25 3.17 2.15 2.1 3.25 5.32 3.25 9.62v12.67h.08Zm-15.87 5.94c1.29 0 2.62-.23 4.03-.7a8.72 8.72 0 0 0 3.71-2.5 6.2 6.2 0 0 0 1.33-2.5c.24-.95.4-2.08.4-3.4v-1.65a32.65 32.65 0 0 0-7.28-.9c-2.62 0-4.54.5-5.83 1.56s-1.92 2.55-1.92 4.5c0 1.84.47 3.2 1.45 4.15.94.97 2.3 1.44 4.1 1.44Zm31.4 4.23c-.7 0-1.17-.12-1.48-.4-.32-.23-.59-.78-.82-1.52l-9.2-30.23a6.85 6.85 0 0 1-.35-1.57c0-.62.32-.97.94-.97h3.83c.75 0 1.26.11 1.53.39.31.23.55.78.78 1.52l6.57 25.9 6.1-25.9c.2-.78.43-1.29.75-1.52.31-.24.86-.4 1.56-.4h3.13c.74 0 1.25.12 1.56.4.32.23.6.78.75 1.52l6.18 26.2 6.76-26.2c.24-.78.51-1.29.79-1.52.3-.24.82-.4 1.52-.4h3.64c.62 0 .98.32.98.98 0 .2-.04.4-.08.63-.04.23-.12.55-.28.98l-9.42 30.23c-.24.78-.51 1.3-.82 1.53-.32.23-.82.39-1.49.39H79.8c-.75 0-1.25-.12-1.57-.4-.31-.27-.58-.78-.74-1.56l-6.06-25.22-6.03 25.18c-.2.78-.43 1.3-.74 1.57s-.86.39-1.56.39h-3.37ZM110 71.76c-2.03 0-4.07-.23-6.02-.7a17.79 17.79 0 0 1-4.5-1.56c-.63-.36-1.06-.75-1.21-1.1a2.76 2.76 0 0 1-.24-1.1v-1.99c0-.82.32-1.21.9-1.21.24 0 .47.04.7.12.24.07.6.23.98.39 1.33.58 2.78 1.05 4.3 1.37 1.57.3 3.1.46 4.66.46 2.46 0 4.38-.43 5.71-1.29a4.21 4.21 0 0 0 2.03-3.71c0-1.1-.35-2-1.05-2.74-.7-.74-2.04-1.4-3.95-2.03l-5.67-1.76c-2.86-.9-4.97-2.23-6.26-4a9.32 9.32 0 0 1-.9-10c.7-1.26 1.64-2.35 2.81-3.21 1.18-.9 2.5-1.57 4.07-2.04a19.63 19.63 0 0 1 7.55-.5c.9.11 1.72.27 2.54.43.78.2 1.53.39 2.23.62.7.24 1.25.47 1.64.7.55.32.94.63 1.18.98.23.32.35.75.35 1.3v1.83c0 .82-.31 1.25-.9 1.25-.31 0-.82-.15-1.48-.46a17.9 17.9 0 0 0-7.51-1.53c-2.23 0-4 .35-5.2 1.1-1.22.74-1.84 1.87-1.84 3.48 0 1.1.39 2.03 1.17 2.77.78.75 2.23 1.49 4.3 2.15l5.56 1.76c2.81.9 4.84 2.15 6.06 3.76a8.85 8.85 0 0 1 1.8 5.47c0 1.69-.36 3.21-1.02 4.54-.7 1.33-1.64 2.5-2.86 3.44a12.6 12.6 0 0 1-4.34 2.2c-1.76.54-3.6.81-5.59.81Z"/>
    <path fill="#F90" fill-rule="evenodd" d="M117.38 90.77c-12.86 9.5-31.56 14.55-47.63 14.55a86.18 86.18 0 0 1-58.16-22.18c-1.21-1.1-.12-2.58 1.33-1.72 16.58 9.62 37.04 15.45 58.2 15.45 14.27 0 29.95-2.97 44.38-9.07 2.16-.98 4 1.4 1.88 2.97Z" clip-rule="evenodd"/>
    <path fill="#F90" fill-rule="evenodd" d="M122.74 84.67c-1.64-2.11-10.87-1.02-15.06-.5-1.25.15-1.44-.95-.31-1.77 7.35-5.16 19.44-3.67 20.84-1.95 1.41 1.76-.39 13.84-7.27 19.63-1.05.9-2.07.43-1.6-.74 1.56-3.88 5.04-12.6 3.4-14.67Z" clip-rule="evenodd"/>
  </g>
  <defs>
    <clipPath id="a">
      <path fill="#fff" d="M0 0h120v70.32H0z" transform="translate(10 35)"/>
    </clipPath>
  </defs>
</svg>
